X: 43164
T: Winter Sky
R: waltz
M: 3/4
K: Emajor
|:E2 F2 G2|B6|e2 d2 B2|G6|
G2 A2 B2|c6|c2 B2 G2|F6|
E3G AB|F4 E2|G2 B2 e2|c4 fg|
a2 g3f|e2 g2 e2|f4 e2|e6-|e6:|
|:f4 e2|g6|b2 c'2 g2|f4 e2|c6|
B2 c2 e2|g4 b2|f2 e2 d2|c6|
c2 B2 A2|G6|G2 F2 E2|
[1 F2 G2 B2|B6-|B6:|2 F4 E2|E6-|E6||

